static/assets/images/exchanges/defive.svg

<svg width="239" height="256" viewBox="0 0 239 256" fill="none" xmlns="http://www.w3.org/2000/svg">
<path d="M65.6111 87.2357L93.5694 88.1101C123.485 89.0456 126.076 89.6897 137.061 98.931C139.989 101.393 144.107 107.106 146.214 111.627C155.437 131.43 147.547 154.729 128.054 165.244C121.905 168.563 118.991 168.793 77.3037 169.266L33.0777 169.769L16.5307 211.661C7.43148 234.703 -0.00814856 254.104 6.6984e-06 254.777C0.00816196 255.45 29.8197 256 66.2472 256C139.634 256 141.806 255.762 164.74 245.179C214.057 222.424 244.684 167.898 238.117 114.548C231.132 57.8242 188.293 12.105 133.141 2.5172C125.175 1.13325 114.461 0 109.333 0H100.01L65.6111 87.2357Z" fill="white"/>
</svg>

<svg xmlns="http://www.w3.org/2000/svg" fill="none" viewBox="0 0 239 256"><path fill="#fff" d="m65.611 87.236 27.958.874c29.916.936 32.507 1.58 43.492 10.821 2.928 2.462 7.046 8.175 9.153 12.696 9.223 19.803 1.333 43.102-18.16 53.617-6.149 3.319-9.063 3.549-50.75 4.022l-44.226.503-16.547 41.892C7.43 234.703-.01 254.104 0 254.777.008 255.45 29.82 256 66.247 256c73.387 0 75.559-.238 98.493-10.821 49.317-22.755 79.944-77.281 73.377-130.631-6.985-56.724-49.824-102.443-104.976-112.03C125.175 1.132 114.461 0 109.333 0h-9.323z"/></svg>
